Dominus_Funeral/22/apps/preferences-desktop-theme.svg

<svg xmlns="http://www.w3.org/2000/svg" width="24" height="24" version="1"><path d="M10.63 22.72l12.22-10.28c-2.6-2.55-4.43-5.72-7.03-7.78l-1.9-2.8-5.65 5.69-3.03 2.47-3.53 2.11 3.14-.23.28-.96.6-.71.82-.31.87-.15.92.31.74.81 2.38-1.98-.63-.82-.08-1.1.28-.96.92-.92 1.24-.22 1.12.29.71.8.33 1.23-.19.96-.86.9 1.14 1.36.6-.53 1.05-.15 1.29.3.73.79.3 1.46-.57 1.21-1.15.74-1.38-.04-1.04-.75-2.43 2.02.53.77.07 1.15-.85 1.44-1.8.4-1.07-.58-.73-.74-.1-.96.09-.96.75-.97 1.32-.41 1.32.3.48.62 2.43-2.02-.54-1.02.07-1.15.63-.96-1.14-1.32-.7.36-.95.02-.85-.25-.35-.32-2.47 2.01.5.97-.23 1.19-.75 1-1.3.43-1.13-.2-.97-1.04-.38-.77.14-.57-3.14.23c2.95 3.32 5.8 6.68 8.92 10.58z" fill="#1a1a1a"/><path d="M10.47 22.37c5.52-2.56 9.2-6.3 12.05-10.16" fill="#1a1a1a" stroke="#1a1a1a" stroke-width=".81"/><g fill="none" stroke="#1a1a1a"><path d="M9.41 21.32l-4.6 1 1.86-4.25a6.36 6.36 0 0 1 2.75 3.25zm-4.25-5.1l-4.61 1 1.87-4.25a6.36 6.36 0 0 1 2.74 3.26zm16.54-5.2l1.76-4.4-4.51 1.13a6.33 6.33 0 0 0 2.75 3.26zm-4.36-5.08l1.76-4.39-4.51 1.12a6.33 6.33 0 0 0 2.75 3.27z" stroke-width=".42"/><circle transform="scale(1 -1) rotate(40.11)" r="2.28" cy="-20.09" cx="-2.37" stroke-width=".42"/><circle transform="scale(1 -1) rotate(40.11)" r="2.28" cy="-13.85" cx="-2.35" stroke-width=".42"/><circle transform="scale(1 -1) rotate(40.11)" r="2.28" cy="-20.15" cx="5.3" stroke-width=".42"/><circle transform="scale(1 -1) rotate(40.11)" r="2.28" cy="-13.9" cx="5.31" stroke-width=".42"/><ellipse transform="scale(1 -1) rotate(39.78)" ry=".68" rx="7.74" cy="-10.28" cx="1.52" stroke-width=".53"/></g></svg>

<?xml version="1.0" encoding="UTF-8" standalone="no"?>
<svg
   xmlns:dc="http://purl.org/dc/elements/1.1/"
   xmlns:cc="http://creativecommons.org/ns#"
   xmlns:rdf="http://www.w3.org/1999/02/22-rdf-syntax-ns#"
   xmlns:svg="http://www.w3.org/2000/svg"
   xmlns="http://www.w3.org/2000/svg"
   xmlns:sodipodi="http://sodipodi.sourceforge.net/DTD/sodipodi-0.dtd"
   xmlns:inkscape="http://www.inkscape.org/namespaces/inkscape"
   width="24"
   height="24"
   version="1"
   id="svg20"
   sodipodi:docname="preferences-desktop-theme.svg"
   inkscape:version="0.92.4 (5da689c313, 2019-01-14)">
  <metadata
     id="metadata26">
    <rdf:RDF>
      <cc:Work
         rdf:about="">
        <dc:format>image/svg+xml</dc:format>
        <dc:type
           rdf:resource="http://purl.org/dc/dcmitype/StillImage" />
        <dc:title></dc:title>
      </cc:Work>
    </rdf:RDF>
  </metadata>
  <defs
     id="defs24" />
  <sodipodi:namedview
     pagecolor="#ffffff"
     bordercolor="#666666"
     borderopacity="1"
     objecttolerance="10"
     gridtolerance="10"
     guidetolerance="10"
     inkscape:pageopacity="0"
     inkscape:pageshadow="2"
     inkscape:window-width="1138"
     inkscape:window-height="480"
     id="namedview22"
     showgrid="false"
     inkscape:zoom="9.8333333"
     inkscape:cx="1.0677966"
     inkscape:cy="12"
     inkscape:window-x="0"
     inkscape:window-y="25"
     inkscape:window-maximized="0"
     inkscape:current-layer="svg20" />
  <path
     d="M 10.63,22.72 22.85,12.44 C 20.25,9.89 18.42,6.72 15.82,4.66 l -1.9,-2.8 -5.65,5.69 -3.03,2.47 -3.53,2.11 3.14,-0.23 0.28,-0.96 0.6,-0.71 0.82,-0.31 0.87,-0.15 0.92,0.31 0.74,0.81 2.38,-1.98 -0.63,-0.82 -0.08,-1.1 0.28,-0.96 0.92,-0.92 1.24,-0.22 1.12,0.29 0.71,0.8 0.33,1.23 -0.19,0.96 -0.86,0.9 1.14,1.36 0.6,-0.53 1.05,-0.15 1.29,0.3 0.73,0.79 0.3,1.46 -0.57,1.21 -1.15,0.74 -1.38,-0.04 -1.04,-0.75 -2.43,2.02 0.53,0.77 0.07,1.15 -0.85,1.44 -1.8,0.4 L 9.72,18.66 8.99,17.92 8.89,16.96 8.98,16 l 0.75,-0.97 1.32,-0.41 1.32,0.3 0.48,0.62 2.43,-2.02 -0.54,-1.02 0.07,-1.15 0.63,-0.96 L 14.3,9.07 13.6,9.43 12.65,9.45 11.8,9.2 11.45,8.88 8.98,10.89 9.48,11.86 9.25,13.05 8.5,14.05 7.2,14.48 6.07,14.28 5.1,13.24 4.72,12.47 4.86,11.9 1.72,12.13 c 2.95,3.32 5.8,6.68 8.92,10.58 z"
     id="path2"
     inkscape:connector-curvature="0"
     style="fill:#1a1a1a" />
  <path
     d="m 10.47,22.37 c 5.52,-2.56 9.2,-6.3 12.05,-10.16"
     id="path4"
     inkscape:connector-curvature="0"
     style="fill:#1a1a1a;stroke:#1a1a1a;stroke-width:0.81" />
  <g
     id="g18"
     style="fill:none;stroke:#1a1a1a">
    <path
       d="m 9.41,21.32 -4.6,1 1.86,-4.25 a 6.36,6.36 0 0 1 2.75,3.25 z m -4.25,-5.1 -4.61,1 1.87,-4.25 a 6.36,6.36 0 0 1 2.74,3.26 z m 16.54,-5.2 1.76,-4.4 -4.51,1.13 a 6.33,6.33 0 0 0 2.75,3.26 z M 17.34,5.94 19.1,1.55 14.59,2.67 a 6.33,6.33 0 0 0 2.75,3.27 z"
       id="path6"
       inkscape:connector-curvature="0"
       style="stroke-width:0.41999999" />
    <circle
       transform="matrix(0.76480897,-0.64425712,-0.64425712,-0.76480897,0,0)"
       r="2.28"
       cy="-20.09"
       cx="-2.3699999"
       id="circle8"
       style="stroke-width:0.41999999" />
    <circle
       transform="matrix(0.76480897,-0.64425712,-0.64425712,-0.76480897,0,0)"
       r="2.28"
       cy="-13.85"
       cx="-2.3499999"
       id="circle10"
       style="stroke-width:0.41999999" />
    <circle
       transform="matrix(0.76480897,-0.64425712,-0.64425712,-0.76480897,0,0)"
       r="2.28"
       cy="-20.15"
       cx="5.3000002"
       id="circle12"
       style="stroke-width:0.41999999" />
    <circle
       transform="matrix(0.76480897,-0.64425712,-0.64425712,-0.76480897,0,0)"
       r="2.28"
       cy="-13.9"
       cx="5.3099999"
       id="circle14"
       style="stroke-width:0.41999999" />
    <ellipse
       transform="matrix(0.76850692,-0.63984148,-0.63984148,-0.76850692,0,0)"
       ry="0.68000001"
       rx="7.7399998"
       cy="-10.28"
       cx="1.52"
       id="ellipse16"
       style="stroke-width:0.52999997" />
  </g>
</svg>
